X: 7705
T:Ray Millburn variations
R:Reel
O:Scotland
N:Just some more variations that I added.
M:4/4
C:Richard Robinson
K:G
F2|\
EGAc cEGA|ccEG AccA|dfdA ddfd|Addf dAdA|\
EGAc cEGA|ccEG AccE|AGAB edBA|B2G2 G2::\
D2|\
GFGA GEDG|FGAG EDGA|BedB AGAB|edBA GFGA|\
GEDG ABed|BAGF GAGE|DGAB edBA|B2G2 G2::\
F2|\
EBFB GBAE|BFBG BAGA|BedB AGAB|edBA EBFB|\
GBAG ABed|BAEB FBGB|AGAB edBA|B2G2 G2:|
